!!!COM: Brahms, Johannes
!!!CDT: 1833/05/07/-1897/04/03/
!!!OTL: Piano Sonata No. 1 in C major, Op. 1
!!!OPS: Op. 1
!!!OMV: No. 2
!!!ODT: 1852///-1853///
!!!OMD: Andante
**kern	**kern	**dynam
*staff2	*staff1	*staff1/2
*Ipiano	*Ipiano	*Ipiano
*clefF4	*clefG2	*clefG2
*k[b-e-a-]	*k[b-e-a-]	*k[b-e-a-]
*c:	*c:	*c:
*M2/4	*M2/4	*M2/4
*MM40	*MM40	*MM40
8G\	8r	mf
=1	=1	=1
(8c'\L	2r	.
8d'\	.	.
8e-'\	.	.
8c'\J)	.	.
=2	=2	=2
(8Bn\L	2r;	.
8c\J)	.	.
4d;\	.	.
=3	=3	=3
4C'\ (4E-'\	(4G'/ 4c'/	pp
4E-'\ 4G'\)	4c'/) 4g'/	.
=4	=4	=4
8G\	8c/ 8e-/	.
8GG/ 8F/	16.Bn/ 16.d/LL	.
.	32e-/JJk	.
8C;\ 8E-;\	8G;/ 8c;/	.
8G\	8r	mf
=5	=5	=5
(8c'\L	2r	.
8d'\	.	.
8e-'\	.	.
8c'\J)	.	.
=6	=6	=6
(8Bn'\L	2r;	.
8c'\J)	.	.
4d;\	.	.
=7	=7	=7
(4C'/ 4E-'/	(4G'/ 4c'/	pp
4EE-'/) 4C'/	4c'/) 4g'/	.
=8	=8	=8
8GG/ 8G/	8c/ 8e-/	.
8GG/ 8F/	16.Bn/ 16.d/LL	.
.	32e-/JJk	.
4CC;/ 4E-;/	4G;/ 4c;/	.
=9	=9	=9
8C\ 8E-\L	8G/ 8c/L	.
16D\ 16F\L	16G/ 16Bn/L	.
16C\ 16E-\JJ	16G/ 16c/JJ	.
4BBn/ 4D/	4G/ 4d/	.
=10	=10	=10
8C\ 8E-\L	8G/ 8c/L	.
16D\ 16F\L	16G/ 16Bn/L	.
16C\ 16E-\JJ	16G/ 16c/JJ	.
4GG/ 4D/	4B/ 4d/	.
=11	=11	=11
4C\ 4E-\	4G/ 4c/	<
(8EE-'/ 8BB-'/ 8E-'/L	(8B-'/ 8g'/L	.
8EE-'/) 8BB-'/ 8E-'/J	8B-'/) 8g'/J	.
=12	=12	=12
*	*^	*
8GG/ 8G/	8c/ 8e-/	4r	.
8GG/ 8F/	16.Bn/ 16.d/LL	.	.
.	32e-/JJk	.	.
8CC;/ 8E-;/	8G;/ 8c;/	8r	.
8GG/	8r	24G'\LL	p
.	.	24G'\	.
.	.	24G'\JJ	.
=13	=13	=13	=13
(8C'\L	16r	[2G^\	.
.	(16c'/LL	.	.
8D'\	16r	.	.
.	16d'/	.	.
8E-'\	16r	.	.
.	16e-'/	.	.
8C'\J)	16r	.	.
.	16c'/JJ)	.	.
=14	=14	=14	=14
(8BBn'/L	16r	2G\]	.
.	(16Bn'/LL	.	.
8C'/J)	16r	.	.
.	16c'/JJ)	.	.
4D;\	16r	.	.
.	8.d;/	.	.
*	*v	*v	*
=15	=15	=15
4C'\ (4E-'\	(4G'/ 4c'/	.
4E-'\ 4G'\)	4c'/) 4g'/	.
=16	=16	=16
*^	*^	*
8GG/ 8G/	4r	8c/ 8e-/	8r	.
*	*	*v	*v	*
*	*	*clefF4	*clefF4
*	*	*^	*
8GG/ 8Fn/	.	16.Bn/ 16.d/LL	24G'\LL	.
.	.	.	24G'\	.
.	.	.	24G'\JJ	.
.	.	32e-/JJk	.	>
(8.AA-^/L	[4CC\ [4E-\	[4c/	(8.F#^\L	.
16GG/Jk)	.	.	16G\Jk)	.
*	*	*v	*v	*
=17	=17	=17	=17
4.GG/	4.CC\] 4.E-\]	4.G\ 4.c\]	.
*	*	*clefG2	*clefG2
24G'/LL	8GG\	24g'/LL	.
24G/	.	24g'/	.
24G'/JJ	.	24g'/JJ	.
=18	=18	=18	=18
*	*	*^	*
[2G/	(8C'\L	24r	[2g\	p
.	.	24c/ 24cc/LL	.	.
.	.	24c'/ 24cc'/JJ	.	.
.	8D'\	24r	.	.
.	.	24d'/ 24dd'/LL	.	.
.	.	24d'/ 24dd'/JJ	.	.
.	8E-'\	24r	.	.
.	.	24e-'/ 24ee-'/LL	.	.
.	.	24e-'/ 24ee-'/JJ	.	.
.	8C'\J)	24r	.	.
.	.	24c'/ 24cc'/LL	.	.
.	.	24c'/ 24cc'/JJ	.	.
=19	=19	=19	=19	=19
4G/]	(8BBn'\L	24r	4.g\]	.
.	.	24Bn'/ 24bn'/LL	.	<
.	.	24B'/ 24b'/JJ	.	.
.	8D'\J)	24r	.	.
.	.	24d'/ 24dd'/LL	.	.
.	.	24d'/ 24dd'/JJ	.	.
4r	4A-\	16r	.	.
.	.	8.a-^\ 8.aa-^\	.	.
.	.	.	8r	.
*v	*v	*	*	*
*	*v	*v	*
=20	=20	=20
4F\ 4A-\ 4d-\ 4f\	4a-^\ 4dd-^\	<
4G-\ 4A-\ 4c\ 4e-\ 4g-\	4a-^\ 4cc^\ 4ee-^\ 4aa-^\	.
=21	=21	=21
*^	*	*
8F\ 8A-\ 8d-\ 8f\	8r	8a-\ 8dd-\ 8aa-\	p
*v	*v	*	*
*clefG2	*	*
*^	*	*
24g'/LL	8G\	16.f\ 16.bn\ (16.ddn\LL	.
24g'/	.	.	.
24g/JJ	.	.	.
.	.	32ee-\JJk)	.
4c^/ 4g^/	4r	4e-/ 4cc/	.
*v	*v	*	*
*clefF4	*	*
=22	=22	=22
8C'\ 8E-'\	16r	.
.	16G'/ 16c'/LL	p
16D'\ 16F'\LL	16G'/ 16Bn'/	.
16C'\ 16E-'\JJ	16G'/ 16c'/JJ	.
8GG'/ 8D'/	16r	.
.	16G'/ 16B'/ 16d'/	.
8r	[8g^/	.
=23	=23	=23
*	*^	*
8C'\ 8E-'\ 8G'\	24r	4.g\]	.
.	24c'/ (24cc'/LL	.	.
.	24c'/ 24cc'/JJ)	.	.
16D'\ 16F'\ 16G'\LL	24r	.	.
.	24Bn'/ (24bn'/LL	.	<
16C'\ 16E-'\ 16G'\JJ	.	.	.
.	24c'/ 24cc'/JJ)	.	.
8BBn'\ 8D'\ 8G'\	16r	.	.
.	16d'/ 16dd'/	.	.
8r	[8a-^/ [8aa-^/	8r	.
=24	=24	=24	=24
4F\ 4A-\ 4d-\ 4f\	4a-/] 4aa-/]	4dd-\	.
8.F#\ 8.c\ 8.e-\ 8.f#\L	4r	8.an\ 8.cc\ 8.ee-\ 8.aan\L	f
16F#\ 16c\ 16e-\ 16f#\Jk	.	16a\ 16cc\ 16ee-\ 16aa\Jk	.
=25	=25	=25	=25
*^	*	*	*
8G'\ 8c'\ 8e-'\ 8g'\	4r	8r	8cc'\ 8ee-'\ 8gg'\	p
*	*	*v	*v	*
*	*	*clefF4	*clefF4
*	*	*^	*
8GG/ 8F/	.	16.Bn/ 16.d/LL	24G'\LL	.
.	.	.	24G'\	.
.	.	.	24G'\JJ	.
.	.	32e-/JJk	.	.
[4CC\ [4E-\	(8.AA-^/L	[4c/	(8.F#^\L	.
.	[16GG/Jk)	.	[16G\Jk)	.
*	*	*v	*v	*
=26	=26	=26	=26
4.GG/]	4.CC\] 4.E-\]	4.G\] 4.c\]	.
*	*	*clefG2	*clefG2
8GGG/ 8GG/	8r	(24gg\LL	p
.	.	24ggg\	.
.	.	24fff\JJ)	.
*v	*v	*	*
=27	=27	=27
(8CC'/ 8C'/L	(24eee-\LL	.
.	24ddd\	.
.	24ccc\JJ)	.
8DD'/ 8D'/	(24bbn\LL	.
.	24ccc\	.
.	24ddd\JJ)	.
8EE-'/ 8E-'/	(24ccc\LL	.
.	24gg\	.
.	24ff\JJ	.
8CC'/) 8C'/J	24ee-\LL	.
.	24dd\	.
.	24cc\JJ)	.
=28	=28	=28
(8BBBn'/ 8BBn'/L	(24dd\LL	<
.	24gg\	.
.	24g\JJ	.
8DD'/) 8D'/J	24f#/LL	.
.	24an/	.
.	24cc/JJ	>
4GG/ 4G/	24b-/LL	.
.	24a/	.
.	[24g/JJ)	.
.	8g/]	.
=29	=29	=29
(8FF#/ 8F#/L	(24an/LL	<
.	24d/	.
.	24dd/JJ	.
8AAn/) 8An/J	24cc#\LL	.
.	24een\	.
.	24gg\JJ	.
4D\ 4d\	24ffn\LL	>
.	24ee\	.
.	[24dd\JJ)	.
.	8dd\]	.
=30	=30	=30
*	*^	*
4B-\ 4d\	4dd/	(24b-\LL	.
.	.	24an\	.
.	.	24g\JJ	.
.	.	24f#\LL	.
.	.	24g\	.
.	.	24a\JJ	.
4E-\ 4B-\ 4e-\	4gg/	24b-\LL	.
.	.	24a\	.
.	.	24b-\JJ	.
.	.	24ee-\LL	.
.	.	24b-\	.
.	.	24g\JJ)	.
=31	=31	=31	=31
8F\ 8B-\ 8d\L	8ff/L	(24dd\LL	.
.	.	24cc\	.
.	.	24b-\JJ	.
8F#\ 8c\J	8ee-/J	24an\LL	.
.	.	24b-\	.
.	.	24a\JJ	.
4G\ 4B-\	4dd/	24b-\LL	.
.	.	24a\	.
.	.	[24g\JJ	.
.	.	8g\])	.
=32	=32	=32	=32
4B-\ 4d\	4dd/	(24b-\LL	<
.	.	24an\	.
.	.	24g\JJ	.
.	.	24f#\LL	.
.	.	24g\	.
.	.	24a\JJ	.
8E-\ 8B-\ 8e-\L	8gg/L	24b-\LL	.
.	.	24a\	.
.	.	24b-\JJ	.
8F\ 8B-\ 8d\J	8ffn/J	24dd\LL	.
.	.	24ee-\	.
.	.	24dd\JJ)	.
=33	=33	=33	=33
8G\ 8c\ 8e-\L	8ee-/L	24cc\LL	.
.	.	24bn\	.
.	.	24b-\JJ	.
8G\ 8Bn\ 8f\J	8dd/J	24a-\LL	.
.	.	24g\	.
.	.	24f\JJ	>
[4C\ [4G\	[4cc/	24e-\LL	.
.	.	24d\	.
.	.	[24c\JJ	.
.	.	8c\_	.
=34	=34	=34	=34
4.C\] 4.G\]	4.cc/]	4.c\]	.
(24G\LL	8r	8bn\ 8dd\ 8ff\ 8gg\	.
24g\	.	.	.
24f\JJ	.	.	.
*	*v	*v	*
=35	=35	=35
24e-\LL	8cc'\ 8ee-'\ 8gg'\ 8ccc'\L	p
24d\	.	.
24c\JJ	.	.
24Bn\LL	8dd'\ 8ff'\ 8gg'\ 8ddd'\	.
24c\	.	.
24d\JJ	.	.
24c\LL	8ee-'\ 8gg'\ 8eee-'\	.
24G\	.	.
24F\JJ	.	.
24E-\LL	8cc'\ 8gg'\ &(8ccc'\J&)	.
24D\	.	.
24C\JJ)	.	.
=36	=36	=36
(24D\LL	8bn'\ 8dd'\ 8gg'\ (8bbn'\L	.
24GG\	.	.
24G\JJ	.	.
24F#\LL	8dd'\ 8aan'\ 8ccc'\ 8ddd'\J)	.
24An\	.	.
24d\JJ	.	.
24B-\LL	4gg\ 4bb-\ 4ddd\ 4ggg\	.
24A\	.	.
[24G\JJ	.	.
8G\])	.	.
=37	=37	=37
(24An\LL	8f#'\ 8an'\ 8dd'\ (8ff#'\L	.
24D\	.	.
24d\JJ	.	.
24c#\LL	8a'\ 8een'\ 8gg'\ 8aan'\J)	.
24en\	.	.
24an\JJ	.	.
24fn\LL	4dd\ 4ffn\ 4aa\ 4ddd\	.
24e\	.	.
[24d\JJ	.	.
8d\])	.	.
=38	=38	=38
*^	*	*
4r	24B-\LL	4f/ 4dd/	.
.	24An\	.	.
.	24G\JJ	.	.
.	24F\LL	.	.
.	24G\	.	.
.	24A\JJ	.	.
24B-/LL	4E-\	4g\ 4b-\ 4gg\	.
24A/	.	.	.
24B-/JJ	.	.	.
24e-/LL	.	.	.
24B-/	.	.	.
24G/JJ	.	.	.
=39	=39	=39	=39
24B-/LL	8F\L	.	.
*	*	*^	*
.	.	8ff/L	24dd\LL	.
24An/	.	.	24cc\	.
24G/JJ	.	.	24b-\JJ	.
24F#/LL	8F#\J	8ee-/J	24an\LL	.
24G/	.	.	24b-\	.
24A/JJ	.	.	24cc\JJ	.
24G/LL	4G\	4dd/	24b-\LL	.
24A/	.	.	24a\	.
[24B-/JJ	.	.	[24g\JJ	.
8B-/]	.	.	8g\]	.
=40	=40	=40	=40	=40
4r	24B-\LL	4dd/	4f\	.
.	24An\	.	.	.
.	24G\JJ	.	.	.
.	24F\LL	.	.	.
.	24G\	.	.	.
.	24A\JJ	.	.	.
24B-/LL	8E-\L	8gg/L	8g\	.
24A/	.	.	.	.
24B-/JJ	.	.	.	.
24d/LL	8F\J	8ff/J	24b-\LL	.
24c/	.	.	24an\	.
24d/JJ	.	.	24b-\JJ	.
=41	=41	=41	=41	=41
24e-/LL	8G\L	8ee-/L	24cc\LL	.
24d/	.	.	24b-\	.
24e-/JJ	.	.	24b-\JJ	.
24f/LL	8G\J	8dd/J	24a-\LL	.
24d/	.	.	24g\	.
24Bn/JJ	.	.	24f\JJ	.
24c/LL	4C\	4cc/	24e-\LL	.
24G/	.	.	24d\	.
[24E-/JJ	.	.	[24c\JJ	.
8E-/]	.	.	8c\]	.
*v	*v	*	*	*
*	*v	*v	*
=42	=42	=42
(8AA-'/ 8E-'/L	(8A-'/ 8c'/L	p
16BB-'/ 16E-'/L	16G'/ 16B-'/L	.
16AA-'/) 16E-'/JJ	16A-'/) 16c'/JJ	.
4FF/ 4F/	4A-/ 4d-/	.
=43	=43	=43
(8AA-'/ 8E-'/L	(8A-'/ 8c'/L	<
16BB-'/ 16E-'/L	16G'/ 16B-'/L	.
16AA-'/) 16E-'/JJ	16A-'/) 16c'/JJ	>
4GG/ 4G/	4B-/ 4e-/	.
=44	=44	=44
4AA-/ 4E-/	4A-/ 4c/	<
(8FF'/ 8F'/L	(8d-'/ 8a-'/L	.
8FF'/) 8F'/J	8dn'/) 8a-'/J	.
=45	=45	=45
8GG/ 8C/ 8G/	8e-/ 8g/	>
8GG/ 8F/	16.Bn/ 16.d/LL	.
.	32e-/JJk	.
4C/ 4E-/	4G/ 4c/	.
=46	=46	=46
*M4/16	*M4/16	*M4/16
(8AA-'/ 8E-'/L	(8A-'/ 8c'/L	p
16BB-'/ 16E-'/L	16G'/ 16B-'/L	.
16AA-'/) 16E-'/JJ	16A-'/) 16c'/JJ	.
=47	=47	=47
*M3/16	*M3/16	*M3/16
*^	*^	*
16r	8.FF\ 8.F\	16r	8.A-\ 8.d-\	pp
*v	*v	*	*	*
*clefG2	*	*	*
*^	*	*	*
32r	.	32r	.	.
32f'/ 32dd-'/ 32ff'/LLL	.	32a-'/ 32dd-'/ 32aa-'/LLL	.	.
32g'/ 32dd-'/ 32ee-'/	.	32b-'/ 32dd-'/ 32gg'/	.	.
32a-'/ 32dd-'/JJJ	.	32a-'/ 32dd-'/ 32ff'/JJJ	.	.
*v	*v	*	*	*
*	*v	*v	*
=48	=48	=48
(32a-/ [32dd-/LLL	32a-/ 32dd-/ (32ff/LLL	.
32b-/) 32dd-/]	32g'/ 32ee-'/)	.
32b-'/ 32dd-'/JJJ	32g'/ 32dd-'/ 32ee-'/JJJ	.
32f'/ 32dd-'/ 32ff'/LLL	32a-'/ 32dd-'/ 32aa-'/LLL	.
32g'/ 32dd-'/ 32ee-'/	32b-'/ 32dd-'/ 32gg'/	.
32a-'/ 32dd-'/JJJ	32a-'/ 32dd-'/ 32ff'/JJJ	.
=49	=49	=49
(32a-/ [32dd-/LLL	(32a-'/ 32dd-'/ 32ff'/LLL	.
32b-/) 32dd-/]	32g/) 32ee-/	.
32b-'/ 32dd-'/JJJ	32g'/ 32dd-'/ 32ee-'/JJJ	.
32r	32r	.
16r	16r	.
*clefF4	*	*
=50	=50	=50
*M4/16	*M4/16	*M4/16
(8AA-'/ 8E-'/L	(8A-'/ 8c'/L	p
16BB-'/ 16E-'/L	16G'/ 16B-'/L	.
16AA-'/) 16E-'/JJ	16A-'/) 16c'/JJ	.
=51	=51	=51
*M3/16	*M3/16	*M3/16
*^	*^	*
16r	8.GG^\ 8.G^\	16r	8.B-^\ 8.e-^\	.
*v	*v	*	*	*
*clefG2	*	*	*
*^	*	*	*
32r	.	32r	.	.
32g'/ 32ee-'/ 32gg'/LLL	.	32b-'/ 32ee-'/ 32bb-'/LLL	.	pp
32an'/ 32ee-'/ 32ff'/	.	32cc'/ 32ee-'/ 32aan'/	.	.
32b-'/ 32ee-'/JJJ	.	32b-'/ 32ee-'/ 32gg'/JJJ	.	.
*v	*v	*	*	*
*	*v	*v	*
=52	=52	=52
(32b-/ [32ee-/LLL	32b-/ 32ee-/ (32gg/LLL	.
32cc/) 32ee-/]	32an/ 32ff/)	.
32cc'/ 32ee-'/JJJ	32a'/ 32ee-'/ 32ff'/JJJ	.
32g'/ 32ee-'/ 32gg'/LLL	32b-'/ 32ee-'/ 32bb-'/LLL	.
32an'/ 32ee-'/ 32ff'/	32cc'/ 32ee-'/ 32aan'/	.
32b-'/ 32ee-'/ 32ff'/JJJ	32b-'/ 32ee-'/ 32gg'/JJJ	.
=53	=53	=53
(32b-/ [32ee-/LLL	32b-/ 32ee-/ (32gg/LLL	.
32cc/) 32ee-/]	32an/ 32ff/)	.
32cc'/ 32ee-'/JJJ	32a'/ 32ee-'/ 32ff'/JJJ	.
32r	32r	.
16r	16r	.
=54	=54	=54
*clefF4	*M2/4	*M2/4
*M2/4	*^	*
*^	*	*	*
4r	24B-\LL	4f/ 4dd/	4r	p
.	24An\	.	.	.
.	24G\JJ	.	.	.
.	24F\LL	.	.	.
.	24G\	.	.	.
.	24A\JJ	.	.	.
24B-/LL	8E-\L	8gg/L	8g\	.
24A/	.	.	.	.
24B-/JJ	.	.	.	.
24d/LL	8F\J	8ff/J	24b-\LL	.
24c/	.	.	24an\	.
24d/JJ	.	.	24b-\JJ	.
=55	=55	=55	=55	=55
24e-/LL	8G\L	8ee-/L	24cc\LL	.
24d/	.	.	24bn\	.
24e-/JJ	.	.	24b-\JJ	.
24f/LL	8G\J	8dd/J	24a-\LL	.
24d/	.	.	24g\	.
24Bn/JJ	.	.	24f\JJ	.
24c/LL	[4C\	[4cc/	24e-\LL	.
24G/	.	.	24d\	.
[24E-/JJ	.	.	[24c\JJ	.
8E-/_	.	.	8c\_	.
=56	=56	=56	=56	=56
4.E-/]	4.C\]	4.cc/]	4.c\]	.
8GGG/ 8GG/	8r	(12gg/L	24gg\LL	f
.	.	.	24f\ 24bn\	.
.	.	24ff/Jk	24ff\JJ	.
*v	*v	*	*	*
*	*v	*v	*
=57	=57	=57
*k[]	*k[]	*k[]
*C:	*C:	*C:
*	*^	*
(8CC/ 8C/L	8een/L	24een\LL	.
.	.	24g\ 24cc\	>
.	.	24e\JJ	.
8DD/ 8D/	8dd/	24dd\LL	.
.	.	24g\ 24b\	.
.	.	24f\JJ	.
8EE/ 8E/	8cc/	24cc\LL	.
.	.	24g\	.
.	.	24c\JJ	.
8CC/) 8C/J	8a/J	24a\LL	.
.	.	24e\	.
.	.	24c\JJ)	.
=58	=58	=58	=58
8BBB/ 8BB/L	8g/L	24g\LL	.
.	.	24G\ 24d\	.
.	.	24f\JJ	.
8CC/ 8C/J	16f/Jk	24e\LL	.
.	.	24c\	.
.	8e/	.	.
.	.	24G\JJ	.
&(4GGG\&) 4GG\	.	24d\LL	>
.	.	24B\	.
.	8d/L	.	.
.	.	24G\	.
.	.	24B\	.
.	.	24G\	.
.	16d/Jk	.	.
.	.	(24d\JJ	.
=59	=59	=59	=59
4CC/ 4C/	8e/L	24e\LL	<
.	.	24c\	.
.	.	24G\JJ	.
.	8g/J	24g\LL	.
.	.	24e\	.
.	.	24c\JJ	.
4GG/ 4G/	12f/L	24f\LL	.
.	.	24B\	.
.	24e/Jk	24c\JJ	.
.	8d/	24d\LL)	.
.	.	24B\	.
.	.	24G\JJ	.
=60	=60	=60	=60
8EE\ 8E\L	8c/L	24c\LL	.
.	.	24G\	.
.	.	24E\JJ	.
8DD\ 8D\J	8d/J	24d\LL	.
.	.	24G\ 24B\	.
.	.	24F\JJ	.
8CC;\ 8C;\	8e;/	24e;\LL	.
.	.	24G;\ 24c;\	.
.	.	24E;\JJ	.
8GGG/ 8GG/	12gg/L	24gg\LL	f
.	.	24f\ 24b\	.
.	24ff/Jk	24ff\JJ	.
=61	=61	=61	=61
(8CC/ 8C/L	8ee/L	24ee\LL	>
.	.	24g\ 24cc\	.
.	.	24e\JJ	.
8DD/ 8D/	8dd/	24dd\LL	.
.	.	24g\ 24b\	.
.	.	24f\JJ	.
8EE/ 8E/	8cc/	24cc\LL	.
.	.	24g\	.
.	.	24c\JJ	.
8CC/) 8C/J	8a/J	24a\LL	.
.	.	24e\	.
.	.	24c\JJ	.
=62	=62	=62	=62
(8BBB/ 8BB/L	12g/L	24g\LL	.
.	.	24G\ 24d\	.
.	24f/Jk	24f\JJ	.
8CC/ 8C/J	8e/	24e\LL	.
.	.	24c\	.
.	.	24G\JJ	.
4GGG/) 4GG/	4d/	24d\LL	.
.	.	24B\	.
.	.	24G\	.
.	.	24B\	.
.	.	24G\	.
.	.	24B\JJ	.
=63	=63	=63	=63
4AAA-\ 4AA-\	4c/	24c\LL	p
.	.	24A-\	.
.	.	24E-\	.
.	.	24A-\	.
.	.	24E-\	.
.	.	24A-\JJ	.
4DD-\ 4D-\	4f/	24f\LL	.
.	.	24B-\	.
.	.	24A-\	.
.	.	24B-\	.
.	.	24A-\	.
.	.	24B-\JJ	.
=64	=64	=64	=64
8CC\ 8C\L	8e-'/L	(24e-\LL	.
.	.	24A-\	.
.	.	24E-\JJ	.
8BBB-\ 8BB-\J	8d-/J	24d-\LL)	.
.	.	24G\	.
.	.	24E-\JJ	.
4AAA-\ 4AA-\	4c/	24c\LL	<
.	.	24A-\	.
.	.	24E-\	.
.	.	24F#\	.
.	.	24E-\	.
.	.	24F#\JJ	.
=65	=65	=65	=65
*^	*	*	*
4r	4GGG\ 4GG\	8c/L	24c\LL	.
.	.	.	24G\	.
.	.	.	24En\JJ	.
.	.	12B/	24B\LL	.
.	.	.	24F\	.
.	.	24c/Jk	24E\JJ	.
16r	4GG\	4d/	24d\LL	<
.	.	.	24B\	.
16D/LL	.	.	.	.
.	.	.	24A\JJ	.
16G/	.	.	8B\	.
16F/JJ	.	.	.	.
=66	=66	=66	=66	=66
8E/L	2GG\	8cc/L	24cc\LL	.
.	.	.	24g\	.
.	.	.	24c\JJ	.
16F/L	.	12b/	24b\LL	.
.	.	.	24d\ 24g\	.
16E/JJ	.	.	.	.
.	.	24cc/Jk	24c\JJ	.
8D/L	.	4dd/	24dd\LL	.
.	.	.	24b\	.
.	.	.	24g\	.
8G/J	.	.	24b\	.
.	.	.	24g\	.
.	.	.	24b\JJ	.
=67	=67	=67	=67	=67
8c/L	4C\	4ee/	24ee\LL	<
.	.	.	24cc\	.
.	.	.	24g\	.
8B-/J	.	.	24cc\	.
.	.	.	24g\	.
.	.	.	24cc\JJ	.
8A/L	4F\	8aa/L	24aa\LL	f
.	.	.	24cc\	.
.	.	.	24a\JJ	.
8Bn/J	.	8aa/J	24aa\LL	.
.	.	.	24dd\	.
.	.	.	24a\JJ	.
*v	*v	*	*	*
=68	=68	=68	=68
8E\ 8c\L	8gg/L	24gg\LL	>
.	.	24cc\ 24ee\	.
.	.	24g\JJ	.
8D\ 8B\J	8ff/J	24ff\LL	.
.	.	24b\	.
.	.	24g\JJ	.
4C\ 4c\	4ee/	24ee\LL	.
.	.	24cc\	.
.	.	24f#\JJ	.
.	.	24g\LL	.
.	.	24e\	.
.	.	24c\JJ	.
*	*v	*v	*
=69	=69	=69
4FF/ 4C/ 4F/	24r	.
.	(24A'/ 24c'/ 24d'/LL	p
.	24A'/ 24c'/ 24d'/JJ	.
.	24A'/ 24c'/ 24d'/LL	.
.	24A'/ 24cn'/ 24c#'/	.
.	24A'/) 24c'/ 24d'/JJ	.
4FF#/ 4D/ 4F#/	24r	.
.	(24c/ 24d/ 24a/LL	.
.	24c'/ 24d'/ 24a'/JJ	.
.	24c'/ 24d'/ 24a'/LL	.
.	24c'/ 24d'/ 24g#'/	.
.	24c'/) 24d'/ 24a'/JJ	.
=70	=70	=70
4AA\ 4D\ 4A\	24r	.
.	(24d/ 24f#/ 24cc/LL	.
.	24d'/ 24f#'/ 24cc'/JJ	.
.	24d'/ 24f#'/ 24cc'/LL	.
.	24d'/ 24f#'/ 24b'/	.
.	24d'/) 24f#'/ 24cc'/JJ	.
24AA-\ 24E-\ 24A-\	24r	.
*clefG2	*	*
(24c'/ 24e-'/ 24f#'/LL	24cc'\ 24ee-'\ (24ff#'\LL	<
24c'/ 24e-'/ 24f#'/JJ	24cc'\ 24ee-'\ 24ff#'\JJ	pp
24c'/ 24e-'/ 24f#'/LL	24cc'\ 24ee-'\ 24ff#'\LL	.
24c'/ 24e-'/ 24fn'/	24cc'\ 24ee-'\ 24ffn'\	.
24c'/) 24e-'/ 24f#'/JJ	24cc'\ 24ee-'\ 24ff#'\JJ)	.
*clefF4	*	*
=71	=71	=71
*^	*	*
24e'\ (24g'\LL	4r	24cc'\ 24een'\ (24gg'\LL	f
24c'\ 24g'\	.	24cc'\ 24ee'\	.
24G'\ 24e'\JJ	.	24g'\ 24cc'\JJ	.
24E'\ 24c'\LL	.	24e'/ 24g'/LL	.
24C'\ 24G'\	.	24c'/ 24e'/	.
24AA'\ 24E'\JJ)	.	24A/ 24c/JJ)	.
4GG\	(24F'/LL	4G^/	.
.	24D'/	.	.
.	24BB'/JJ	.	.
.	24GG'/LL	.	.
.	24FF'/	.	.
.	24DD'/JJ)	.	.
=72	=72	=72	=72
4r	8CC\L	2r	.
.	8CC\	.	.
8r	8CC\	.	.
(8G'/	8C\J	.	.
=73	=73	=73	=73
8B'/L	8C\L	4r	.
8c'/	8C\	.	.
8e'/	8C\	8r	.
8B'/J)	8C\J	8g\ 8cc\ 8ee\	pp
=74	=74	=74	=74
4A/	8C\L	8f'\ 8cc'\ (8ee'\L	.
.	8C\	8cc'\ 8ee'\ 8ff'\	.
8r	8C\	8cc'\ 8ee'\ 8aa'\	.
8A/	8C\J	8f'\ 8cc'\ 8ee'\J)	.
=75	=75	=75	=75
(8A'/L	8C\L	(8f'/ 8b'/ 8dd'/L	.
8B'/	8C\	8f'/) 8b'/ 8dd'/J	.
8d'/	8C\	8r	.
8A'/J)	8C\J	8f/ 8b/ 8dd/	.
=76	=76	=76	=76
4G/	8C\L	8e'\ 8b'\ (8dd'\L	.
.	8C\	8b'\ 8dd'\ 8ee'\	.
8r	8C\	8b'\ 8dd'\ 8gg'\	.
8G/	8C\J	8e'\ 8b'\ 8dd'\J)	.
=77	=77	=77	=77
8G'/L	8C\L	(8e'/ 8a'/ 8cc'/L	.
8A'/	8C\	8e'/) 8a'/ 8cc'/J	.
8c'/	8C\	8r	.
&(8G'/J&)	8C\J	(8e'/ 8a'/ 8cc'/	.
=78	=78	=78	=78
4F/	8C\L	8d'/ 8a'/ 8cc'/L	.
.	8C\	8a'/ 8cc'/ 8dd'/	.
8r	8C\	8a'/ 8cc'/ 8ff'/	.
8F/	8C\J	8d'/) 8a'/ 8cc'/J	.
=79	=79	=79	=79
(8F'/L	8C\L	(8d'/ 8g'/ 8b'/L	.
8A'/	8C\	8d'/) 8g'/ 8b'/J	.
8G'/	8C\	8r	.
*	*	*clefF4	*clefF4
8F'/J)	8C\J	8G\	.
*v	*v	*	*
=80	=80	=80
*	*^	*
(8CC'/ 8C'/L	2B-^/	8E'\ (8c'\L	p
8CC'/ 8GG'/	.	8F'\ 8d'\	.
8CC'/ 8C'/	.	8G'\ 8e'\	.
8CC'/) 8GG'/J	.	8E'\ 8c'\J)	.
=81	=81	=81	=81
(8CC'/ 8C'/L	8A'\ (8f'\L	2A^/	.
8CC'/ 8GG'/	8c'\ 8g'\	.	.
8CC'/ 8C'/	8f'\ 8a'\J)	.	.
8CC'/) 8GG'/J	8F\	.	.
=82	=82	=82	=82
(8CC'/ 8C'/L	2A-^/	8D'\ (8B'\L	.
8CC'/ 8GG'/	.	8E'\ 8c'\	.
8CC'/ 8C'/	.	8F'\ 8d'\	.
8CC'/) 8GG'/J	.	8D'\ 8B'\J)	.
=83	=83	=83	=83
(8CC'/ 8C'/L	4G/	4E\ [4c\	.
8CC'/ 8GG'/	.	.	.
8CC'/ 8C'/	4c/_	4G^\ 4B-^\	.
8CC'/) 8GG'/J	.	.	.
=84	=84	=84	=84
(8CC'/ 8C'/L	2c^/]	4F\ 4A\	.
8CC'/ 8GG'/	.	.	.
8CC'/ 8C'/	.	4D^\ 4F^\	.
8CC'/) 8GG'/J	.	.	.
=85	=85	=85	=85
4.CC;/ 4.GG;/ 4.C;/	4.c;/	4.E^\ 4.G^\	.
*	*v	*v	*
==	==	==
*-	*-	*-
!!!ENC: Craig Stuart Sapp
!!!END: 2008/07/20/
